svgs/sharp-thin/tablet.svg

<svg xmlns="http://www.w3.org/2000/svg" viewBox="0 0 448 512"><!--! Font Awesome Pro 6.6.0 by @fontawesome - https://fontawesome.com License - https://fontawesome.com/license (Commercial License) Copyright 2024 Fonticons, Inc. --><path d="M16 16l0 480 416 0 0-480L16 16zM0 0L16 0 432 0l16 0 0 16 0 480 0 16-16 0L16 512 0 512l0-16L0 16 0 0zM176 432l96 0 8 0 0 16-8 0-96 0-8 0 0-16 8 0z"/></svg>

<svg xmlns="http://www.w3.org/2000/svg" viewBox="0 0 448 512"><!--! Font Awesome Pro 6.5.2 by @fontawesome - https://fontawesome.com License - https://fontawesome.com/license (Commercial License) Copyright 2024 Fonticons, Inc. --><path d="M16 16V496H432V16H16zM0 0H16 432h16V16 496v16H432 16 0V496 16 0zM176 432h96 8v16h-8H176h-8V432h8z"/></svg>
